resources/assets/icons/copy.svg

<svg viewBox="0 0 16 16" xmlns="http://www.w3.org/2000/svg">
<path d="M10.6562 14.0663C10.6562 14.6108 10.1896 14.9997 9.72292 14.9997H9.80069H2.87847C2.33403 14.9997 1.94514 14.533 1.94514 14.0663V5.35519C1.94514 4.81075 2.41181 4.42188 2.87847 4.42188H7.77847C8.01181 4.42188 8.24514 4.49964 8.47847 4.6552L10.3451 6.52186C10.5785 6.75519 10.5785 6.98855 10.5785 7.22188L10.6562 14.0663Z" stroke="currentColor" stroke-width="1.6" stroke-linecap="round" stroke-linejoin="round" fill="none"/>
<path d="M5.36666 4.42222V1.93332C5.36666 1.38887 5.83333 1 6.29999 1H11.2C11.4333 1 11.6667 1.07777 11.9 1.23332L13.7667 3.09999C14 3.33332 14 3.56665 14 3.79998V10.7222C14 11.2667 13.5333 11.6555 13.0667 11.6555H10.6556" stroke="currentColor" stroke-width="1.6" stroke-linecap="round" stroke-linejoin="round" fill="none"/>
</svg>

<svg viewBox="0 0 16 16" xmlns="http://www.w3.org/2000/svg"><path d="M10.656 14.066c0 .545-.466.934-.933.934H9.8 2.878c-.544 0-.933-.467-.933-.934v-8.71c0-.545.467-.934.933-.934h4.9c.234 0 .467.078.7.233l1.867 1.867c.233.233.233.467.233.7l.078 6.844Z" stroke="currentColor" stroke-width="1.6" stroke-linecap="round" stroke-linejoin="round" fill="none"/><path d="M5.367 4.422V1.933c0-.544.466-.933.933-.933h4.9c.233 0 .467.078.7.233L13.767 3.1c.233.233.233.467.233.7v6.922c0 .545-.467.934-.933.934h-2.411" stroke="currentColor" stroke-width="1.6" stroke-linecap="round" stroke-linejoin="round" fill="none"/></svg>
